X: 19
M:2/4
L:1/8
K:G
e2{f}e2|f/e/d/f/ e/d/B/A/|d<d f/ed/|B/G/A/F/ Gd|
e2{f}e2|g/f/e/g/ f/e/d/B/|d<e f/ed/|B/G/A/F/ G2||



